X: 4324
M: 6/8
L: 1/8
K: C
!p!cd ecA |\
(d3 A2)z | z"_cresc."dd dcd | (e3 B2)z | zAB cde |\
[1 ^f3- f2e | d3- d2A | Bag ^fdB | G :|\
[2 g3 f2e | d3- d2G | c6- | c |]


